X:1
T:Unendliche Freude
T:Unendliche Freude
T:Franz Schubert (1797 - 1828) Text: Friedrich von Schiller (1759 - 1805)
C:Franz Schubert (1797 - 1828)
C:Text: Friedrich von Schiller (1759 - 1805)
%%score 1 2 3
L:1/8
Q:3/8=70
M:6/8
K:D
V:1 treble-8 nm="T I" snm="TI"
V:2 treble-8 nm="T II" snm="TII"
V:3 bass nm="B" snm="B"
V:1
"^Allegretto"!pp! A | A>BA Adf | f/e/ dc d2 A | (B2 d) A2 A | ^A>AA Bcd | c3 F z2 |!pp! c3!f! cBc | %7
w: Un-|end- li- che Freu- de durch-|wal * let das Herz. Hier|man * gelt der|Na- me dem trauern * den|Lei- de,|sanf * tes Ent-|
 (d3 d)B!p!G | F>GE D2!ff! A | (d3 d>)cd | f3 d z d | (B3 B)^AB | (c3 c) z!f! F | c3 d z d | %14
w: z"u * cken nur|hei- sset man Schmerz. Un-|en * li- che|Freu- de durch-|wal * let das|Herz. * Hier|mangelt * der|
!ff! e3 f z!p! g | (d3 d)cB | B3 ^A z2 |!p! (B2 c) d2 ^d | (e2 =d) c2 c | %19
w: Na- me dem|trau * ern- den|Lei- de,|sanf * tes Ent-|z"u * cken nur|
{c} BA^G !fermata!A2!pp! A | A>BA Adg | f/e/dc d2 A | (B2 d) A2 A | c>cc def | e3 A z2 | %25
w: hei- sset man Schmerz. Un-|end- li- che Freu- de durch|wal * let das Herz. Hier|man * gelt der|Na- me dem trauern * den|Lei- de,|
!pp! (c3 c)Bc |!f! (d3 d)B!p!G | F>GF D2!ff! d | (d3 d)cd | f3 d2 d | (B3 B)cd | (c3 c) z!ff! d | %32
w: sanf * tes Ent-|z"u * cken nur|hei- sset man Schmerz. Un|end * li- che|Freu- de durch|wal * let das|Herz, * un-|
 (d3 d)cd | f3 d z d |!p! (A3 A)Bc | d3 z2 z |] %36
w: end * li- che|Freu- de durch-|wal * let das|Herz.|
V:2
 F | F>GF FFA | A/G/FE F2 F | G3 F2 F | E>EE F^AB | ^A3 F z2 | =A3 G2 G | F3 G z D | D>EC D2 A | %9
w: Un-|end- li- che Freu- de durch-|wal * let das Herz. Hier|man- gelt der|Na- me dem trauern * den|Lei- de,|sanf- tes Ent-|z"u- cken nur|hei- sset man Schmerz. Un-|
 (D3 D>)CD | F3 D z2 | z2 F FFF | ^A3 A z F | ^A3 B z B | =A3 A z A | (F3 ^E)EE | F3 F z2 | %17
w: en * li- che|Freu- de|durch- wal- let das|Herz. * Hier|mangelt * der|Na- me dem|trau * ern- den|Lei- de,|
 (F2 ^A) B2 B | B3 =A2 A | EEE !fermata!E2 F | F>GF FFA | A/G/FE F2 F | G3 F2 A | A>AA Acd | %24
w: sanf * tes Ent-|z"u- cken nur|hei- sset man Schmerz. Un-|end- li- che Freu- de durch|wal * let das Herz. Hier|man- gelt der|Na- me dem trauern * den|
 c3 A z2 | (G3 G)GG | (F3 G) z D | D>EC D2 D | (D3 D)CD | F3 D2 z | z2 F F^AB | (^A3 F) z D | %32
w: Lei- de,|sanf * tes Ent-|z"u- cken nur|hei- sset man Schmerz. Un|end * li- che|Freu- de|durch wal- let das|Herz, * un-|
 (D3 D)CD | F3 D z2 | z2 G GGG | F3 z2 z |] %36
w: end * li- che|Freu- de|durch- wal- let das|Herz.|
V:3
 D, | D,>D,D, D,D,D, | A,,A,,A,, D,2 D, | (G,,2 B,,) D,2 D, | C,>C,C, D,C,B,, | F,3 F, z2 | %6
 F,3 E,2 E, | D,3 B,, z B,, | A,,>A,,A,, D,2 A,, | (D,3 D,>)C,D, | F,3 D, z2 | z2 D, D,D,D, | %12
 (F,3 F,) z F, | F,3 B, z B,, | A,,3 B,, z A,, | (B,,2 F,,) G,,2 G,, | F,,3 F,, z2 | %17
 (D,2 C,) B,,2 A,, | ^G,,3 A,,2 A,, | D,C,B,, !fermata!C,2 D, | D,>D,D, D,D,D, | A,,A,,A,, D,2 D, | %22
 (G,,2 B,,) D,2 F, | G,>G,G, F,E,D, | A,3 A, z2 | (G,,3 G,,)G,,G,, | (D,3 B,,) z B,, | %27
 A,,>A,,A,, D,2 D, | (D,3 D,)C,D, | F,3 D,2 z | z2 D, D,F,B, | (F,3 F,) z D, | (D,3 D,)C,D, | %33
 F,3 D, z2 | z2 A,, A,,A,,A,, | D,3 z2 z |] %36

